assets/icons/24px/stroke/check-24px.svg

<svg width="24" height="24" viewBox="0 0 24 24" fill="none" xmlns="http://www.w3.org/2000/svg">
<path fill-rule="evenodd" clip-rule="evenodd" d="M20.6 3.2C21.0418 3.53137 21.1314 4.15817 20.8 4.6L9.6 19.5333C9.59041 19.5461 9.58075 19.559 9.57101 19.572C9.41392 19.7817 9.23722 20.0176 9.06135 20.1924C8.85685 20.3958 8.50815 20.6667 8 20.6667C7.49185 20.6667 7.14315 20.3958 6.93865 20.1924C6.76277 20.0176 6.58608 19.7817 6.42898 19.572C6.41924 19.559 6.40958 19.5461 6.4 19.5333L3.2 15.2667C2.86863 14.8248 2.95817 14.198 3.4 13.8667C3.84183 13.5353 4.46863 13.6248 4.8 14.0667L8 18.3333L19.2 3.4C19.5314 2.95817 20.1582 2.86863 20.6 3.2ZM7.64343 18.7815C7.64343 18.7815 7.64404 18.7809 7.64525 18.7799C7.64404 18.781 7.64344 18.7816 7.64343 18.7815Z" fill="white"/>
</svg>

<svg width="24" height="24" fill="none" xmlns="http://www.w3.org/2000/svg"><path fill-rule="evenodd" clip-rule="evenodd" d="M20.6 3.2a1 1 0 0 1 .2 1.4L9.6 19.533l-.029.039c-.157.21-.334.446-.51.62-.204.204-.553.475-1.061.475-.508 0-.857-.271-1.061-.475-.176-.174-.353-.41-.51-.62l-.029-.039-3.2-4.266a1 1 0 1 1 1.6-1.2L8 18.333 19.2 3.4a1 1 0 0 1 1.4-.2zM7.643 18.782l.002-.002-.002.002z" fill="#fff"/></svg>
